X: 1803
T: Picking Berries
B: australian traditional tunes wiki
M:2/4
L:1/8
R: Quickstep
Q: 1/4=100
K:G
V:1 
D2|"G"BB AB|"G"GG FG|"A7"AA GA|"A7"E2E2|"D7"AF ED|"D7"cA FE|"G"D2-D2|"D7"D2D2|
"G"BB AB|"G"GG FG|"A7"AA GA|"A7"E2E2|"D7"AF ED|"D7"cA FE|"G"G4-|"G"GD GA|
"G"B2B2|"G"GB2A|"C"G2E2|"G"DG2G|"D7"Ad2c|"D7"B2A2|"G"G4-|GG FG|
"C"AG2E|"C"AG2E|"G"D2GA|"G"BG BB|"A7"B2AB|"A7"AE DE|"D7"A4-|"D7"AD GA|
"G"B2B2|"G"GB2A|"C"G2E2|"G"DG2G|"D7"A3G|"D7"A2_B2|"B7"B4-|"B7"BB AB|
"Em"cB2G|"Em"E4|"A7"BA BA|"A7"E2E2|"D7"Ad2-d|"D7"B2A2|"G"G4-|"G"G4||
% abcbook-tune_id 6342d53afa48bae132e08b5e


% abcbook-boost 0
% abcbook-tablature 
% abcbook-transpose 
% abcbook-lastupdated 1665324384858
% abcbook-soundfonts 
% abcbook-repeats 1
% NFF Book 2016

